packages/foundations/assets/icons/functional/images/human/shower_men_24.svg

<svg width="24" height="24" viewBox="0 0 24 24" fill="none" xmlns="http://www.w3.org/2000/svg">
<g clip-path="url(#clip0_185_1179)">
<path fill-rule="evenodd" clip-rule="evenodd" d="M11.0127 15.9998C11.5819 15.9998 12.1254 16.2401 12.5036 16.6625C12.8885 17.0924 13.0634 17.6679 12.975 18.2649L12.4636 21.1685C12.3678 21.7124 11.8492 22.0758 11.3052 21.9799C10.7612 21.8841 10.3979 21.3655 10.4937 20.8215L10.99 17.9999H4.00996L4.53921 20.8143C4.64171 21.3571 4.2848 21.8801 3.74204 21.9826C3.23805 22.0778 2.75102 21.7769 2.60195 21.2988L2.02046 18.2374C1.93649 17.6679 2.11139 17.0924 2.49626 16.6625C2.83665 16.2823 3.36607 15.9998 3.98719 15.9998H11.0127ZM16.1521 12.97C16.4446 12.5017 17.0616 12.3594 17.53 12.6519C17.9983 12.9443 18.1409 13.5611 17.8482 14.0292C17.5555 14.4973 16.9387 14.6398 16.4703 14.3472C16.0018 14.0547 15.8594 13.4381 16.1521 12.97ZM12.1356 12.4965C12.4129 12.0195 13.0248 11.858 13.5022 12.1359C13.9798 12.4139 14.1419 13.026 13.8644 13.503C13.5868 13.9802 12.9749 14.1418 12.4975 13.8638C12.0202 13.5858 11.858 12.9738 12.1356 12.4965ZM20.4966 12.1353C20.9738 11.858 21.5861 12.0201 21.8641 12.4975C22.1418 12.9749 21.9802 13.5868 21.5033 13.8644C21.0261 14.1418 20.414 13.9796 20.1361 13.5022C19.8581 13.0246 20.0194 12.4127 20.4966 12.1353ZM7.51948 6.93768C9.44995 6.93768 11 8.48769 11 10.4182C11 12.3514 9.44748 13.9377 7.51948 13.9377C5.58902 13.9377 3.99996 12.3486 3.99996 10.4182C3.99996 8.49015 5.58627 6.93768 7.51948 6.93768ZM7.51948 8.93768C6.6813 8.93768 5.99996 9.60449 5.99996 10.4182C5.99996 11.244 6.69359 11.9377 7.51948 11.9377C8.33314 11.9377 8.99996 11.2563 8.99996 10.4182C8.99996 9.59226 8.34538 8.93768 7.51948 8.93768ZM16.152 9.96985C16.4447 9.50169 17.0617 9.35938 17.5298 9.65191C17.9985 9.94428 18.1409 10.5609 17.8482 11.0291C17.5556 11.4974 16.9386 11.6397 16.4701 11.3472C16.0018 11.0548 15.8594 10.4382 16.152 9.96985ZM13.1354 9.49674C13.4128 9.01953 14.0249 8.85795 14.5023 9.13593C14.9797 9.4139 15.1419 10.026 14.8645 10.5032C14.5869 10.9804 13.975 11.1417 13.4976 10.8638C13.0202 10.586 12.8581 9.97372 13.1354 9.49674ZM19.4966 9.13549C19.9738 8.85791 20.5859 9.02008 20.8639 9.49746C21.1419 9.97484 20.9803 10.5868 20.5033 10.8644C20.0261 11.1417 19.414 10.9798 19.136 10.5022C18.858 10.0248 19.0196 9.41284 19.4966 9.13549ZM17 1.99988C17.5128 1.99988 17.9932 2.41348 17.9932 2.99988L18.0006 5.52933C19.0823 5.593 20.1632 5.75991 21.2425 6.02974C21.7783 6.16368 22.104 6.70662 21.9701 7.24241C21.8361 7.77821 21.2932 8.10397 20.7574 7.97002C19.5028 7.65637 18.2509 7.49988 17 7.49988C15.749 7.49988 14.4971 7.65637 13.2425 7.97002C12.7067 8.10397 12.1638 7.77821 12.0298 7.24241C11.8959 6.70662 12.2216 6.16368 12.7574 6.02974C13.8371 5.75982 14.9183 5.5929 16.0003 5.52927L16 2.99988C16 2.44759 16.4477 1.99988 17 1.99988Z" fill="#1A1C1F"/>
</g>
<defs>
<clipPath id="clip0_185_1179">
<rect width="24" height="24" fill="white"/>
</clipPath>
</defs>
</svg>

<svg xmlns="http://www.w3.org/2000/svg" width="24" height="24" fill="none"><g clip-path="url(#a)"><path fill="#1A1C1F" fill-rule="evenodd" d="M11.013 16a2 2 0 0 1 1.49.663c.386.43.56 1.005.472 1.602l-.511 2.903a1 1 0 1 1-1.97-.346L10.99 18H4.01l.53 2.814a1 1 0 0 1-1.938.485l-.582-3.062c-.084-.57.091-1.145.476-1.574.34-.38.87-.663 1.491-.663zm5.14-3.03a1 1 0 1 1 1.695 1.06 1 1 0 0 1-1.696-1.06m-4.017-.474a1 1 0 1 1 1.728 1.008 1 1 0 0 1-1.728-1.008m8.36-.36a1.001 1.001 0 0 1 1.007 1.728 1 1 0 0 1-1.006-1.729M7.52 6.937A3.47 3.47 0 0 1 11 10.418c0 1.933-1.553 3.52-3.48 3.52A3.537 3.537 0 0 1 4 10.418c0-1.928 1.586-3.48 3.52-3.48m0 2c-.838 0-1.519.666-1.519 1.48 0 .826.694 1.52 1.52 1.52.813 0 1.48-.682 1.48-1.52a1.47 1.47 0 0 0-1.48-1.48m8.633 1.032a1 1 0 1 1 1.696 1.06 1 1 0 0 1-1.696-1.06m-3.017-.473a1 1 0 1 1 1.728 1.005 1 1 0 0 1-1.728-1.005m6.362-.362a1 1 0 1 1 1.005 1.73 1 1 0 0 1-1.005-1.73M17 2c.513 0 .993.413.993 1l.008 2.53a17.6 17.6 0 0 1 3.241.5 1 1 0 0 1-.485 1.94A15.4 15.4 0 0 0 17 7.5q-1.876 0-3.758.47a1 1 0 0 1-.485-1.94A17.6 17.6 0 0 1 16 5.53V3a1 1 0 0 1 1-1" clip-rule="evenodd"/></g><defs><clipPath id="a"><path fill="#fff" d="M0 0h24v24H0z"/></clipPath></defs></svg>
